svgs/sharp-light/diagram-previous.svg

<svg xmlns="http://www.w3.org/2000/svg" viewBox="0 0 512 512"><!--! Font Awesome Pro 6.6.0 by @fontawesome - https://fontawesome.com License - https://fontawesome.com/license (Commercial License) Copyright 2024 Fonticons, Inc. --><path d="M480 320l-208 0-32 0L32 320l0 128 448 0 0-128zM272 288l208 0 32 0 0 32 0 128 0 32-32 0L32 480 0 480l0-32L0 320l0-32 32 0 208 0 0-105.4-36.7 36.7L192 230.6 169.4 208l11.3-11.3 64-64L256 121.4l11.3 11.3 64 64L342.6 208 320 230.6l-11.3-11.3L272 182.6 272 288zM512 32l0 16 0 160 0 16-16 0-96 0-16 0 0-32 16 0 80 0 0-128L32 64l0 128 80 0 16 0 0 32-16 0-96 0L0 224l0-16L0 48 0 32l16 0 480 0 16 0z"/></svg>

<svg xmlns="http://www.w3.org/2000/svg" viewBox="0 0 512 512"><!--! Font Awesome Pro 6.4.0 by @fontawesome - https://fontawesome.com License - https://fontawesome.com/license (Commercial License) Copyright 2023 Fonticons, Inc. --><path d="M480 320l-208 0H240L32 320l0 128 448 0V320zM272 288H480h32v32V448v32H480 32 0V448 320 288H32 240V182.6l-36.7 36.7L192 230.6 169.4 208l11.3-11.3 64-64L256 121.4l11.3 11.3 64 64L342.6 208 320 230.6l-11.3-11.3L272 182.6V288zM512 32V48 208v16H496 400 384V192h16 80V64L32 64l0 128h80 16v32H112 16 0V208 48 32H16l480 0h16z"/></svg>
